src/4-icons/leisure.svg

<svg width="260" height="260" viewBox="0 0 260 260" fill="none" xmlns="http://www.w3.org/2000/svg"><path d="M80 100c0-5.523 4.477-10 10-10s10 4.477 10 10-4.477 10-10 10-10-4.477-10-10Zm90-10c-5.523 0-10 4.477-10 10s4.477 10 10 10 10-4.477 10-10-4.477-10-10-10Zm-43 91c-22.091 0-40-17.909-40-40H73v4c0 27.614 22.386 50 50 50h14c27.614 0 50-22.386 50-50v-4h-14c0 22.091-17.909 40-40 40h-6Z" fill="#000"/><path fill-rule="evenodd" clip-rule="evenodd" d="M0 130c0 71.797 58.203 130 130 130s130-58.203 130-130S201.797 0 130 0 0 58.203 0 130Zm14 0c0 64.065 51.935 116 116 116s116-51.935 116-116S194.065 14 130 14 14 65.935 14 130Z" fill="#000"/></svg>

<svg width="260" height="260" viewBox="0 0 260 260" fill="none" xmlns="http://www.w3.org/2000/svg">
<path d="M80 100C80 94.4771 84.4771 90 90 90C95.5229 90 100 94.4771 100 100C100 105.523 95.5229 110 90 110C84.4771 110 80 105.523 80 100Z" fill="black"/>
<path d="M170 90C164.477 90 160 94.4771 160 100C160 105.523 164.477 110 170 110C175.523 110 180 105.523 180 100C180 94.4771 175.523 90 170 90Z" fill="black"/>
<path d="M127 181C104.909 181 87 163.091 87 141H73V145C73 172.614 95.3858 195 123 195H137C164.614 195 187 172.614 187 145V141H173C173 163.091 155.091 181 133 181H127Z" fill="black"/>
<path fill-rule="evenodd" clip-rule="evenodd" d="M0 130C0 201.797 58.203 260 130 260C201.797 260 260 201.797 260 130C260 58.203 201.797 0 130 0C58.203 0 0 58.203 0 130ZM14 130C14 194.065 65.935 246 130 246C194.065 246 246 194.065 246 130C246 65.935 194.065 14 130 14C65.935 14 14 65.935 14 130Z" fill="black"/>
</svg>
